X: 312
T: the Winsome Widow   #2
T: an baintrea\`ba\`c eirea\`cda\`miul
R: air, song, march
%S: s:2 b:13(6+7)
B: O'Neill's 1850 #312
Z: 1999 by John Chambers <jc@trillian.mit.edu>
N: Compacted via repeats and multiple endings [JC]
Q: "With spirit"
O: F.O'Neill
M: 2/4
L: 1/8
K: G
"^A"[|] D |: G>G B>d | =f>f eg | d>B AG |1,3 EG (G<D) :|2,4 (E<G-) G "^B":: (d/e/) | =f>f (ed) |
| (e>^f) (ge) | (e>d) (BG) | AG (E/D/) "^C"|| z/D/ | D>E GA | B>c de | d>B AG | (E<G-) G :|
